src/assets/apple.svg

<svg xmlns="http://www.w3.org/2000/svg" width="52" height="61" fill="none" viewBox="0 0 52 61"><path fill="#2ECC82" d="M43.2212 32.028C43.1937 27.0621 45.4736 23.314 50.0882 20.5537C47.5062 16.9138 43.6057 14.9112 38.4554 14.5188C33.5798 14.1399 28.251 17.3197 26.3008 17.3197C24.2407 17.3197 19.5161 14.6541 15.8079 14.6541C8.14431 14.7759 0 20.6754 0 32.6775C0 36.2226 0.659236 39.885 1.97771 43.6647C3.73567 48.6306 10.0808 60.8085 16.7006 60.6055C20.1616 60.5244 22.6063 58.1835 27.1111 58.1835C31.4785 58.1835 33.7447 60.6055 37.6039 60.6055C44.2787 60.5108 50.0195 49.4424 51.6951 44.463C42.7405 40.309 43.2212 32.2851 43.2212 32.028ZM35.4477 9.81001C39.1971 5.42595 38.8537 1.43429 38.7439 0C35.4339 0.189435 31.6021 2.21909 29.4184 4.72233C27.0149 7.40148 25.6003 10.7166 25.9025 14.4512C29.4871 14.7218 32.7558 12.9086 35.4477 9.81001Z"/></svg>

<svg xmlns="http://www.w3.org/2000/svg" width="52" height="61" fill="none"><path fill="#2ECC82" d="M43.221 32.028c-.027-4.966 2.253-8.714 6.867-11.474-2.582-3.64-6.482-5.643-11.633-6.035-4.875-.38-10.204 2.8-12.154 2.8-2.06 0-6.785-2.665-10.493-2.665C8.144 14.776 0 20.675 0 32.678c0 3.545.66 7.207 1.978 10.987C3.736 48.63 10.08 60.809 16.7 60.605c3.46-.08 5.905-2.421 10.41-2.421 4.367 0 6.634 2.422 10.493 2.422 6.675-.095 12.416-11.164 14.091-16.143-8.955-4.154-8.474-12.178-8.474-12.435ZM35.448 9.81c3.75-4.384 3.406-8.376 3.296-9.81-3.31.19-7.142 2.22-9.326 4.722-2.403 2.68-3.818 5.995-3.515 9.73 3.584.27 6.853-1.543 9.545-4.642Z"/></svg>
